assets/illustrations/multisize/48/docx.svg

<svg id="5266cb5c-5804-456b-8e34-1e4d0152ffff" data-name="ICONS" xmlns="http://www.w3.org/2000/svg" xmlns:xlink="http://www.w3.org/1999/xlink" viewBox="0 0 48 48"><defs><linearGradient id="d45e955e-ce6b-48ba-882d-286bb73745ad" x1="14" y1="39.1875" x2="14" y2="14.75839" gradientUnits="userSpaceOnUse"><stop offset="0" stop-color="#fff" stop-opacity="0"/><stop offset="0.52587" stop-color="#fff" stop-opacity="0.00735"/><stop offset="0.71529" stop-color="#fff" stop-opacity="0.03396"/><stop offset="0.8503" stop-color="#fff" stop-opacity="0.0803"/><stop offset="0.95875" stop-color="#fff" stop-opacity="0.14595"/><stop offset="1" stop-color="#fff" stop-opacity="0.18"/></linearGradient><linearGradient id="e907e7b5-c6cf-4669-bb4a-907c5323c18d" x1="17.75381" y1="42.91826" x2="18.17734" y2="38.93002" gradientUnits="userSpaceOnUse"><stop offset="0" stop-color="#828282" stop-opacity="0"/><stop offset="0.99719" stop-opacity="0.2"/></linearGradient><linearGradient id="bdf1caf8-7a29-4928-a606-ae058533060e" x1="8.58668" y1="5.86411" x2="42.48928" y2="46.26765" gradientUnits="userSpaceOnUse"><stop offset="0" stop-color="#fff" stop-opacity="0"/><stop offset="0.86247" stop-color="#5e5e5e" stop-opacity="0.06315"/><stop offset="1" stop-opacity="0.1"/></linearGradient><linearGradient id="14c6ed25-af5a-4329-9359-9896a8f9f748" x1="38" y1="16.90625" x2="38" y2="14.08751" gradientUnits="userSpaceOnUse"><stop offset="0" stop-color="#828282" stop-opacity="0"/><stop offset="0.86247" stop-color="#303030" stop-opacity="0.06315"/><stop offset="1" stop-opacity="0.1"/></linearGradient><linearGradient id="1620f33e-a8e6-40dc-b4e2-953f482d1a6e" x1="31.27" y1="12.23" x2="37.23606" y2="6.26394" gradientUnits="userSpaceOnUse"><stop offset="0" stop-color="#fff" stop-opacity="0"/><stop offset="0.44604" stop-color="#fff" stop-opacity="0.00799"/><stop offset="0.63551" stop-color="#fff" stop-opacity="0.03616"/><stop offset="0.77636" stop-color="#fff" stop-opacity="0.08493"/><stop offset="0.8924" stop-color="#fff" stop-opacity="0.15385"/><stop offset="0.99328" stop-color="#fff" stop-opacity="0.24291"/><stop offset="1" stop-color="#fff" stop-opacity="0.25"/></linearGradient></defs><title>FileTypeIcons_Master_All_NEW</title><polygon points="43 44 13 44 13 4 34 4 43 13 43 44" fill="#fff"/><path d="M34.00049,3H12V45H44V13ZM34,4.5,42.5,13H34ZM43,44H13V4H33V14H43Z" fill="#949494"/><rect x="24" y="17" width="16" height="1" fill="#c8c8c8"/><rect x="24" y="20" width="16" height="1" fill="#c8c8c8"/><rect x="24" y="23" width="16" height="1" fill="#c8c8c8"/><rect x="24" y="26" width="16" height="1" fill="#c8c8c8"/><rect x="24" y="29" width="16" height="1" fill="#c8c8c8"/><rect x="24" y="32" width="16" height="1" fill="#c8c8c8"/><rect x="24" y="35" width="16" height="1" fill="#c8c8c8"/><rect x="24" y="38" width="16" height="1" fill="#c8c8c8"/><rect x="16" y="7" width="8" height="1" fill="#c8c8c8"/><polygon points="4 17 24 14 24 40 4 37 4 17" fill="#2b579a"/><path d="M21,22,18.37587,32H15.89713l-1.64787-6.41562A5.367,5.367,0,0,1,14.09,24.46165h-.0277a6.87162,6.87162,0,0,1-.18,1.12273L12.19288,32H9.61029L7,22H9.44411l1.39862,6.65969a8.03267,8.03267,0,0,1,.13155,1.14366h.04155a5.55711,5.55711,0,0,1,.20079-1.17155L13.01682,22h2.39564l1.6271,6.71548a8.32653,8.32653,0,0,1,.15925,1.07392h.0277a7.21049,7.21049,0,0,1,.1454-1.11576L18.74283,22Z" fill="#fff"/><polygon points="24 14 4 17 4 37 24 40 24 14" fill="url(#d45e955e-ce6b-48ba-882d-286bb73745ad)"/><polygon points="24 43 12 43 12 38.2 24 40 24 43" fill="url(#e907e7b5-c6cf-4669-bb4a-907c5323c18d)"/><path d="M44,13,34,3H12V45H44Z" fill="url(#bdf1caf8-7a29-4928-a606-ae058533060e)"/><rect x="33" y="14" width="10" height="3" fill="url(#14c6ed25-af5a-4329-9359-9896a8f9f748)"/><polygon points="12 3 12 4 33 4 33 14 43 14 43 28 44 28 44 13 34 3 12 3" fill="url(#1620f33e-a8e6-40dc-b4e2-953f482d1a6e)"/></svg>

<?xml version="1.0" encoding="utf-8"?>
<!-- Generator: Adobe Illustrator 21.1.0, SVG Export Plug-In . SVG Version: 6.00 Build 0)  -->
<svg version="1.1" xmlns="http://www.w3.org/2000/svg" xmlns:xlink="http://www.w3.org/1999/xlink" x="0px" y="0px"
	 viewBox="0 0 48 48" enable-background="new 0 0 48 48" xml:space="preserve">
<g id="TEMPLATE" display="none">
	<g display="inline">
		<path fill="#D0D0D0" d="M48,0v48H0V0H48 M49-1h-1H0h-1v1v48v1h1h48h1v-1V0V-1L49-1z"/>
	</g>
	<g display="inline" opacity="0.1">
		<path fill="#FF3A6D" d="M45,3v42H3V3H45 M48,0H0v48h48V0L48,0z"/>
	</g>
</g>
<g id="ICONS">
	<g>
		<polygon fill="#FFFFFF" points="43,44 13,44 13,4 34,4 43,13 		"/>
		<path fill="#949494" d="M34.0005,3H12v42h32V13L34.0005,3z M34,4.5l8.5,8.5H34V4.5z M43,44H13V4h20v10h10V44z"/>
	</g>
	<rect x="24" y="17" fill="#C8C8C8" width="16" height="1"/>
	<rect x="24" y="20" fill="#C8C8C8" width="16" height="1"/>
	<rect x="24" y="23" fill="#C8C8C8" width="16" height="1"/>
	<rect x="24" y="26" fill="#C8C8C8" width="16" height="1"/>
	<rect x="24" y="29" fill="#C8C8C8" width="16" height="1"/>
	<rect x="24" y="32" fill="#C8C8C8" width="16" height="1"/>
	<rect x="24" y="35" fill="#C8C8C8" width="16" height="1"/>
	<rect x="24" y="38" fill="#C8C8C8" width="16" height="1"/>
	<rect x="16" y="7" fill="#C8C8C8" width="8" height="1"/>
	<polygon fill="#2B579A" points="4,17 24,14 24,40 4,37 	"/>
	<g>
		<path fill="#FFFFFF" d="M21,22l-2.6241,10h-2.4787l-1.6479-6.4156c-0.0878-0.3347-0.1409-0.7088-0.1592-1.1227h-0.0277
			c-0.0415,0.4558-0.1016,0.8298-0.18,1.1227L12.1929,32H9.6103L7,22h2.4441l1.3986,6.6597
			c0.0598,0.2837,0.1039,0.665,0.1316,1.1437h0.0415c0.0183-0.3579,0.0853-0.7484,0.2008-1.1715L13.0168,22h2.3956l1.6271,6.7155
			c0.0598,0.2466,0.113,0.6045,0.1592,1.0739h0.0277c0.0183-0.3671,0.0668-0.7392,0.1454-1.1158L18.7428,22H21z"/>
	</g>
	<linearGradient id="SVGID_1_" gradientUnits="userSpaceOnUse" x1="14" y1="39.1875" x2="14" y2="14.7584">
		<stop  offset="0" style="stop-color:#FFFFFF;stop-opacity:0"/>
		<stop  offset="0.8587" style="stop-color:#FFFFFF;stop-opacity:0.1546"/>
		<stop  offset="1" style="stop-color:#FFFFFF;stop-opacity:0.18"/>
	</linearGradient>
	<polygon fill="url(#SVGID_1_)" points="24,14 4,17 4,37 24,40 	"/>
	<linearGradient id="SVGID_2_" gradientUnits="userSpaceOnUse" x1="17.7538" y1="42.9183" x2="18.1773" y2="38.93">
		<stop  offset="0" style="stop-color:#828282;stop-opacity:0"/>
		<stop  offset="0.1699" style="stop-color:#7E7E7E;stop-opacity:0.0341"/>
		<stop  offset="0.346" style="stop-color:#717171;stop-opacity:0.0694"/>
		<stop  offset="0.5248" style="stop-color:#5D5D5D;stop-opacity:0.1053"/>
		<stop  offset="0.7057" style="stop-color:#404040;stop-opacity:0.1415"/>
		<stop  offset="0.8863" style="stop-color:#1B1B1B;stop-opacity:0.1778"/>
		<stop  offset="0.9972" style="stop-color:#000000;stop-opacity:0.2"/>
	</linearGradient>
	<polygon fill="url(#SVGID_2_)" points="24,43 12,43 12,38.2 24,40 	"/>
	<linearGradient id="SVGID_3_" gradientUnits="userSpaceOnUse" x1="8.5867" y1="5.8641" x2="42.4893" y2="46.2676">
		<stop  offset="0" style="stop-color:#FFFFFF;stop-opacity:0"/>
		<stop  offset="0.2264" style="stop-color:#FCFCFC;stop-opacity:0.0226"/>
		<stop  offset="0.3626" style="stop-color:#F4F4F4;stop-opacity:0.0363"/>
		<stop  offset="0.475" style="stop-color:#E6E6E6;stop-opacity:0.0475"/>
		<stop  offset="0.5744" style="stop-color:#D1D1D1;stop-opacity:0.0574"/>
		<stop  offset="0.6652" style="stop-color:#B7B7B7;stop-opacity:0.0665"/>
		<stop  offset="0.7498" style="stop-color:#979797;stop-opacity:0.075"/>
		<stop  offset="0.8297" style="stop-color:#707070;stop-opacity:0.083"/>
		<stop  offset="0.9057" style="stop-color:#444444;stop-opacity:0.0906"/>
		<stop  offset="0.9761" style="stop-color:#121212;stop-opacity:0.0976"/>
		<stop  offset="1" style="stop-color:#000000;stop-opacity:0.1"/>
	</linearGradient>
	<path fill="url(#SVGID_3_)" d="M44,13L34,3H12v42h32V13z"/>
	<linearGradient id="SVGID_4_" gradientUnits="userSpaceOnUse" x1="38" y1="16.9063" x2="38" y2="14.0875">
		<stop  offset="0" style="stop-color:#828282;stop-opacity:0"/>
		<stop  offset="0.2812" style="stop-color:#7F7F7F;stop-opacity:0.0281"/>
		<stop  offset="0.4503" style="stop-color:#777777;stop-opacity:0.045"/>
		<stop  offset="0.5899" style="stop-color:#696969;stop-opacity:0.059"/>
		<stop  offset="0.7133" style="stop-color:#545454;stop-opacity:0.0713"/>
		<stop  offset="0.8259" style="stop-color:#3A3A3A;stop-opacity:0.0826"/>
		<stop  offset="0.9294" style="stop-color:#1A1A1A;stop-opacity:0.0929"/>
		<stop  offset="1" style="stop-color:#000000;stop-opacity:0.1"/>
	</linearGradient>
	<rect x="33" y="14" fill="url(#SVGID_4_)" width="10" height="3"/>
	<linearGradient id="SVGID_5_" gradientUnits="userSpaceOnUse" x1="31.27" y1="12.23" x2="37.2361" y2="6.2639">
		<stop  offset="0" style="stop-color:#FFFFFF;stop-opacity:0"/>
		<stop  offset="0.8537" style="stop-color:#FFFFFF;stop-opacity:0.2134"/>
		<stop  offset="1" style="stop-color:#FFFFFF;stop-opacity:0.25"/>
	</linearGradient>
	<polygon fill="url(#SVGID_5_)" points="12,3 12,4 33,4 33,14 43,14 43,28 44,28 44,13 34,3 	"/>
</g>
</svg>
